Simply-Blue-Circles/scalable/actions/tab-new.svg

<svg xmlns="http://www.w3.org/2000/svg" width="24" height="24"><g fill="#2c89a0"><path d="M7.502 4.12s-.797-.016-1.627.399c-.832.416-1.748 1.476-1.748 2.976v10.124H3.002l-.004 2.25h.004l3.375.011v-.01h14.625v-2.25h-1.125V7.494s.016-.798-.4-1.628c-.416-.832-1.475-1.747-2.975-1.747zm0 2.25h9c.75 0 .816.209.962.502.147.295.163.623.163.623v10.124H6.377V7.495c0-.75.21-.816.503-.962.295-.148.622-.163.622-.163z" font-family="sans-serif" font-weight="400" overflow="visible" style="font-variant-ligatures:normal;font-variant-position:normal;font-variant-caps:normal;font-variant-numeric:normal;font-variant-alternates:normal;font-feature-settings:normal;text-indent:0;text-decoration-line:none;text-decoration-style:solid;text-decoration-color:#000;text-transform:none;text-orientation:mixed;shape-padding:0;isolation:auto;mix-blend-mode:normal" white-space="normal"/><path d="M10.884 8.62v2.25h-2.25v2.25h2.25v2.25h2.25v-2.25h2.25v-2.25h-2.25V8.62z"/></g></svg>

<?xml version="1.0" encoding="UTF-8" standalone="no"?>
<svg
   xmlns:dc="http://purl.org/dc/elements/1.1/"
   xmlns:cc="http://creativecommons.org/ns#"
   xmlns:rdf="http://www.w3.org/1999/02/22-rdf-syntax-ns#"
   xmlns:svg="http://www.w3.org/2000/svg"
   xmlns="http://www.w3.org/2000/svg"
   xmlns:sodipodi="http://sodipodi.sourceforge.net/DTD/sodipodi-0.dtd"
   xmlns:inkscape="http://www.inkscape.org/namespaces/inkscape"
   width="24"
   height="24"
   version="1.1"
   id="svg8"
   sodipodi:docname="tab-new.svg"
   inkscape:version="0.92.4 (5da689c313, 2019-01-14)">
  <metadata
     id="metadata14">
    <rdf:RDF>
      <cc:Work
         rdf:about="">
        <dc:format>image/svg+xml</dc:format>
        <dc:type
           rdf:resource="http://purl.org/dc/dcmitype/StillImage" />
        <dc:title></dc:title>
      </cc:Work>
    </rdf:RDF>
  </metadata>
  <defs
     id="defs12" />
  <sodipodi:namedview
     pagecolor="#ffffff"
     bordercolor="#666666"
     borderopacity="1"
     objecttolerance="10"
     gridtolerance="10"
     guidetolerance="10"
     inkscape:pageopacity="0"
     inkscape:pageshadow="2"
     inkscape:window-width="1078"
     inkscape:window-height="480"
     id="namedview10"
     showgrid="false"
     inkscape:zoom="9.8333333"
     inkscape:cx="-0.81355932"
     inkscape:cy="12"
     inkscape:window-x="0"
     inkscape:window-y="28"
     inkscape:window-maximized="0"
     inkscape:current-layer="svg8" />
  <g
     id="g6"
     style="fill:#2c89a0">
    <path
       d="m 7.5,4.12 c 0,0 -0.8,-0.02 -1.63,0.4 A 3.34,3.34 0 0 0 4.13,7.5 V 17.62 H 3 v 2.25 l 3.38,0.01 V 19.87 H 21 V 17.62 H 19.88 V 7.49 c 0,0 0.01,-0.8 -0.4,-1.62 A 3.34,3.34 0 0 0 16.5,4.12 Z m 0,2.25 h 9 c 0.75,0 0.82,0.2 0.96,0.5 0.15,0.3 0.17,0.62 0.17,0.62 V 17.62 H 6.38 V 7.49 C 6.38,6.75 6.58,6.68 6.88,6.53 7.18,6.39 7.5,6.37 7.5,6.37 Z"
       font-weight="400"
       overflow="visible"
       style="font-weight:400;font-family:sans-serif;font-variant-ligatures:normal;font-variant-position:normal;font-variant-caps:normal;font-variant-numeric:normal;font-variant-alternates:normal;font-feature-settings:normal;text-indent:0;text-decoration:none;text-decoration-line:none;text-decoration-style:solid;text-decoration-color:#000000;text-transform:none;text-orientation:mixed;white-space:normal;shape-padding:0;overflow:visible;isolation:auto;mix-blend-mode:normal"
       id="path2"
       inkscape:connector-curvature="0" />
    <path
       d="m 10.88,8.62 v 2.25 H 8.63 v 2.25 h 2.25 v 2.25 h 2.25 v -2.25 h 2.25 V 10.87 H 13.13 V 8.62 Z"
       id="path4"
       inkscape:connector-curvature="0" />
  </g>
</svg>
